X: 2
T: Mississippi Palisades
C: by Chirps Smith [New Bad Habits]
R: reel
Z: 2016 John Chambers <jc:trillian.mit.edu>
M: C|
L: 1/8
K: G
DE |\
"G"G2GD B,2DE | G2BA GABG | "D"AGBG cGBG | "A7"AFA^c | "D7"d2 (3(DEF) |
"G"G2GD B,2DE | GABA GABG | "D"AGBG cGBG | "D7"AGFD [1 "G"G2 :|2 "G"G4 ||
|:\
"G"d2dc BcdB | "C"c2c2 E2c2 | "G"B2GA "(C)"cBAG | "A7"FGA^c "D7"d2d2- |
"G"dcdc "G"BcdB | "C"c2c2 E2c2 | "G"B2G2 "(C)"cBAG | "D7"FGAF "G"G4 :|
